X: 340
T: Sirba from Floreshti
R: sirba
O: Romania
Q: 1/4=144
B: German Goldenshteyn "Shpilt klezmorimlach klingen zoln di gesalach" New York 2003 v.3 #40
Z: 2013 John Chambers <jc:trillian.mit.edu>
N: Reworked the final endings, which were 2 bars each with the first bars identical.
M: 2/4
L: 1/8
K: Am
|:\
cz (3(cBA) | ^GA Bc | A4 | E4 | cz (3(cBA) | ^GA Bc | A4 | e4 |
cz (3(cBA) | ^GA Bc | d4 | ^d4 | (3(^def) (3(edc) | (3(Bcd) (3(cBA) | (3(^GAB) (3(E^F^G) |[1 Az E2 :|[2 A ef^f ||
K: C
|:\
g4- | ga bc' | e4- | eg ag | (~gf) (~fe) | (~ed) (~dc) | g2- g(a/b/) | c'a ec |
g4- | ga bc' | e4- | eg ag | (~gf) (~fe) | (~ed) (~dc) |c4- |[1  ce f^f :|[2 cz e2 |]
